src/lib/packages/icons/src/assets/line/vimeo.svg

<svg width="24" height="24" viewBox="0 0 24 24" fill="none" xmlns="http://www.w3.org/2000/svg">
<path d="M20.76 5.23994C20.18 4.61994 19.39 4.27993 18.4 4.25993C16.45 4.18993 13.86 4.98993 12.59 9.14993C12.51 9.42993 12.59 9.72993 12.81 9.92993C13.03 10.1199 13.34 10.1799 13.61 10.0599C13.97 9.89994 14.32 9.82994 14.65 9.82994C14.84 9.82994 14.99 9.85994 15.04 9.91994C15.1 9.98994 15.15 10.1899 15.11 10.5599C15.08 10.8999 14.86 11.5999 14.01 12.9499C13.51 13.7499 13.18 14.1099 13.01 14.2799C12.87 14.0399 12.63 13.4799 12.34 12.1999C12.21 11.6899 11.97 10.3199 11.63 8.12994C11.1101 4.83994 9.28004 4.51993 8.23004 4.61993C7.46004 4.68993 6.48004 5.25993 5.13004 6.42993C4.27004 7.20993 3.40005 7.98994 2.51005 8.76994C2.21005 9.02994 2.17005 9.47993 2.41005 9.78993L3.26005 10.8799C3.51005 11.1999 3.95004 11.2599 4.28004 11.0399C4.83004 10.6499 5.13005 10.4599 5.29005 10.3799C5.44005 10.5299 5.82004 11.0399 6.27004 12.6899L7.74004 18.0899C8.66004 20.5599 9.76005 21.7599 11.1001 21.7599C12.9701 21.7599 15.07 20.1099 17.9 16.4199C20.39 13.2099 21.64 10.7199 21.73 8.78993C21.8 7.21993 21.47 6.03993 20.75 5.25993L20.76 5.23994ZM16.73 15.4899C14.3 18.6499 12.41 20.2499 11.11 20.2499C10.52 20.2499 9.78004 19.2399 9.17004 17.6199L7.72005 12.2799C7.27005 10.6699 6.59005 8.81995 5.26005 8.81995C5.05005 8.81995 4.85004 8.85994 4.17004 9.29994C4.83004 8.70994 5.48005 8.12994 6.12005 7.54994C7.56005 6.29994 8.17004 6.12994 8.37004 6.10994C8.79004 6.06994 9.77004 5.96994 10.14 8.35994C10.5 10.6199 10.74 11.9999 10.88 12.5399C11.26 14.2799 11.78 15.8899 12.95 15.8899C13.65 15.8899 14.32 15.2699 15.28 13.7499C16.11 12.4399 16.54 11.4399 16.61 10.6999C16.69 9.93994 16.54 9.33994 16.16 8.91994C15.78 8.49994 15.21 8.31994 14.52 8.32994C15.36 6.54994 16.63 5.71993 18.37 5.75993C18.95 5.77993 19.37 5.93994 19.67 6.26994C20.1 6.73994 20.3 7.57995 20.25 8.70995C20.18 10.2999 19 12.5799 16.73 15.4999V15.4899Z" fill="currentColor"/>
</svg>

<svg xmlns="http://www.w3.org/2000/svg" width="24" height="24" fill="none"><path fill="currentColor" d="M20.76 5.24c-.58-.62-1.37-.96-2.36-.98-1.95-.07-4.54.73-5.81 4.89-.08.28 0 .58.22.78.22.19.53.25.8.13.36-.16.71-.23 1.04-.23.19 0 .34.03.39.09.06.07.11.27.07.64-.03.34-.25 1.04-1.1 2.39-.5.8-.83 1.16-1 1.33-.14-.24-.38-.8-.67-2.08-.13-.51-.37-1.88-.71-4.07-.52-3.29-2.35-3.61-3.4-3.51-.77.07-1.75.64-3.1 1.81-.86.78-1.73 1.56-2.62 2.34-.3.26-.34.71-.1 1.02l.85 1.09c.25.32.69.38 1.02.16.55-.39.85-.58 1.01-.66.15.15.53.66.98 2.31l1.47 5.4c.92 2.47 2.02 3.67 3.36 3.67 1.87 0 3.97-1.65 6.8-5.34 2.49-3.21 3.74-5.7 3.83-7.63.07-1.57-.26-2.75-.98-3.53l.01-.02Zm-4.03 10.25c-2.43 3.16-4.32 4.76-5.62 4.76-.59 0-1.33-1.01-1.94-2.63l-1.45-5.34c-.45-1.61-1.13-3.46-2.46-3.46-.21 0-.41.04-1.09.48.66-.59 1.31-1.17 1.95-1.75C7.56 6.3 8.17 6.13 8.37 6.11c.42-.04 1.4-.14 1.77 2.25.36 2.26.6 3.64.74 4.18.38 1.74.9 3.35 2.07 3.35.7 0 1.37-.62 2.33-2.14.83-1.31 1.26-2.31 1.33-3.05.08-.76-.07-1.36-.45-1.78-.38-.42-.95-.6-1.64-.59.84-1.78 2.11-2.61 3.85-2.57.58.02 1 .18 1.3.51.43.47.63 1.31.58 2.44-.07 1.59-1.25 3.87-3.52 6.79v-.01Z"/></svg>
